assets/img/braze_icons/plus.svg

<svg fill="none" height="24" viewBox="0 0 24 24" width="24" xmlns="http://www.w3.org/2000/svg"><path d="m13 5c0-.55228-.4477-1-1-1s-1 .44772-1 1v6h-6c-.55228 0-1 .4477-1 1s.44772 1 1 1h6v6c0 .5523.4477 1 1 1s1-.4477 1-1v-6h6c.5523 0 1-.4477 1-1s-.4477-1-1-1h-6z" fill="#801ed7"/></svg>

<svg width="24" height="24" viewBox="0 0 24 24" fill="none" xmlns="http://www.w3.org/2000/svg">
<path d="M13 5C13 4.44772 12.5523 4 12 4C11.4477 4 11 4.44772 11 5V11H5C4.44772 11 4 11.4477 4 12C4 12.5523 4.44772 13 5 13H11V19C11 19.5523 11.4477 20 12 20C12.5523 20 13 19.5523 13 19V13H19C19.5523 13 20 12.5523 20 12C20 11.4477 19.5523 11 19 11H13V5Z" fill="#801ED7"/>
</svg>
